X:1
T:Title
%%score { 1 | ( 2 3 ) }
L:1/8
Q:1/4=114
M:4/4
K:Eb
V:1 treble nm="Grand Piano"
V:2 bass 
V:3 bass 
V:1
 [GB]4 [_G=A]3 [_Ac] | [GB]4 G2 E2 | D2 F2 [FA]2 [Ac]2 | [Ac]4 [GB]2 z2 | [Ge]4 [GB]2 G2 | %5
w: Thomas~O.~Lowe * *|||||
 B4 G2 E2 | [B,EG]4 [G,B,E]3 [A,DF] | [G,E]6 z2 | [B,GB]4 [C_G=A]3 [_Ac] | [GB]4 G2 E2 | %10
w: |||||
 D2 F2 [FA]2 [Ac]2 | [Ac]4 [GB]2 z2 | [Ge]4 [Ad]2 [EBe]2 | [EAc]4 [CFA]2 [A,CF]2 | %14
w: ||||
 [G,E]4 [B,EG]2 [A,DF]2 | [G,E]4 z4 | [B,DF]4 [B,FA]2 [B,FA]2 | [B,EG]3 [FA] [GB]2 z2 | %18
w: ||||
 [DF]4 [FA]2 [FA]2 | [EG]3 [FA] [GB]2 z2 | e4 e2 c2 | [EGB]3 [B,EG] [EGB]2 z2 | %22
w: ||||
 [B,EG]4 [G,E]3 [A,DF] | [G,E]4 z4 |] %24
w: ||
V:2
 [E,B,]4 [E,C]3 [E,E] | [E,E]4 [E,B,E]2 [E,G,]2 | B,2 z2 z4 | [E,E]4 [E,E]2 z2 | %4
 [E,B,]4 [E,E]2 [E,B,E]2 | [E,G,E]4 [E,B,E]2 [E,G,]2 | B,,4 B,,3 B,, | E,6 z2 | E,4 E,3 [E,E] | %9
 [E,E]4 [E,B,E]2 [E,G,]2 | B,2 z2 z4 | [E,E]4 [E,E]2 z2 | [E,B,]4 [F,B,]2 G,2 | A,4 C,2 C,2 | %14
 B,,4 B,,2 B,,2 | E,4 z4 | B,,4 B,,2 D,2 | E,3 [E,E] [E,E]2 z2 | [B,,B,]4 [B,,B,]2 [D,B,]2 | %19
 [E,B,]3 [E,E] [E,E]2 z2 | [A,CA]4 [A,CA]2 [A,EA]2 | E,3 E, E,2 z2 | B,,4 B,,3 B,, | E,4 z4 |] %24
V:3
 x8 | x8 | [B,,F,]2- [B,,F,D]2 [B,,F,]2 [D,B,]2 | x8 | x8 | x8 | x8 | x8 | x8 | x8 | %10
 [B,,F,]2- [B,,F,D]2 [B,,F,]2 [D,B,]2 | x8 | x8 | x8 | x8 | x8 | x8 | x8 | x8 | x8 | x8 | x8 | x8 | %23
 x8 |] %24

